X: 396
T:Auld Lang Syne (sample)
N: page 149
N: pentatonic
M:4/4
L:1/8
K:C
%
P:Verse
A2 | D3 D D2 ^F | E3 D E2 ^F2 | D3 D ^F2 A2 | B6 B2 |
A3 ^F ^F2 D2 | E3 D E2 ^FE | D3 B, B,2 A,2 | D6 |]
%
